src/lib/packages/icons/src/assets/line/bowling-ball.svg

<svg xmlns="http://www.w3.org/2000/svg" width="24" height="24" fill="none"><path fill="currentColor" d="M12 1.25C6.07 1.25 1.25 6.07 1.25 12S6.07 22.75 12 22.75 22.75 17.93 22.75 12 17.93 1.25 12 1.25Zm0 20c-5.1 0-9.25-4.15-9.25-9.25S6.9 2.75 12 2.75 21.25 6.9 21.25 12 17.1 21.25 12 21.25ZM14.27 7a1.25 1.25 0 1 1-1.26-1.25h.01c.69 0 1.25.56 1.25 1.25Zm3 3a1.25 1.25 0 1 1-1.26-1.25h.01c.69 0 1.25.56 1.25 1.25Zm-4 1a1.25 1.25 0 1 1-1.26-1.25h.01c.69 0 1.25.56 1.25 1.25Z"/></svg>

<svg width="24" height="24" viewBox="0 0 24 24" fill="none" xmlns="http://www.w3.org/2000/svg">
<path d="M12 1.25C6.07 1.25 1.25 6.07 1.25 12C1.25 17.93 6.07 22.75 12 22.75C17.93 22.75 22.75 17.93 22.75 12C22.75 6.07 17.93 1.25 12 1.25ZM12 21.25C6.9 21.25 2.75 17.1 2.75 12C2.75 6.9 6.9 2.75 12 2.75C17.1 2.75 21.25 6.9 21.25 12C21.25 17.1 17.1 21.25 12 21.25ZM14.27 7C14.27 7.69 13.71 8.25 13.02 8.25C12.33 8.25 11.77 7.69 11.77 7C11.77 6.31 12.32 5.75 13.01 5.75H13.02C13.71 5.75 14.27 6.31 14.27 7ZM17.27 10C17.27 10.69 16.71 11.25 16.02 11.25C15.33 11.25 14.77 10.69 14.77 10C14.77 9.31 15.32 8.75 16.01 8.75H16.02C16.71 8.75 17.27 9.31 17.27 10ZM13.27 11C13.27 11.69 12.71 12.25 12.02 12.25C11.33 12.25 10.77 11.69 10.77 11C10.77 10.31 11.32 9.75 12.01 9.75H12.02C12.71 9.75 13.27 10.31 13.27 11Z" fill="currentColor"/>
</svg>
